X: 8
T:Nancy's Fancy
% Nottingham Music Database
P:AAB
S:FTB 2/27
M:4/4
L:1/4
K:G
P:A
|:D|"G"GB BA/2B/2|"D7"cA Ad|"G"BG GB|"Am"A/2G/2F/2E/2 "D7"DD|"G"GB "Em"BA/2B/2\
|"Am"cA "D7"Ad|"G"BG "D7"AF|"G"G2 G:|
P:B
|:g|fe dc|"G"BA GB|"G"dg dB|"D"B2 Ag|fe dc|BA Bc|
"G"dg "D7"fd|"G"g2 g2|"Em"BB B/2A/2B|"Am"cc c/2B/2c|"Em"BB B/2A/2B|
"D7"A/2G/2F/2E/2 DD|"Em"BB B/2A/2B|"Am"cc c/2B/2c|"Em"BG "D7"AF|"G"G2 G:|<end>
<start>
